packages/axiom-materials/src/icon_svgs/tumblr.svg

<svg height="16" viewBox="0 0 16 16" width="16" xmlns="http://www.w3.org/2000/svg"><path d="m6.34491321 16c-2.39071541 0-4.17237901-1.2379064-4.17237901-4.1996234v-4.74326602h-2.1725342v-2.5681938c2.39071541-.62487762 3.39073758-2.69561943 3.5059636-4.48891678h2.48249717v4.07229823h2.89641297v2.98481235h-2.89641297v4.13013682c0 1.2380068.62072406 1.6659721 1.60907398 1.6659721h1.40246525v3.1467805z" fill="#35465d" fill-rule="evenodd" transform="translate(4)"/></svg>

<?xml version="1.0" encoding="UTF-8"?>
<svg width="16px" height="16px" viewBox="0 0 16 16" version="1.1" xmlns="http://www.w3.org/2000/svg" xmlns:xlink="http://www.w3.org/1999/xlink">
    <g id="Symbols/Tumblr" stroke="none" stroke-width="1" fill="none" fill-rule="evenodd">
        <g id="Tumblr" transform="translate(4.000000, 0.000000)" fill="#35465D">
            <path d="M6.34491321,16 C3.9541978,16 2.1725342,14.7620936 2.1725342,11.8003766 L2.1725342,7.05711058 L0,7.05711058 L0,4.48891678 C2.39071541,3.86403916 3.39073758,1.79329735 3.5059636,0 L5.98846077,0 L5.98846077,4.07229823 L8.88487374,4.07229823 L8.88487374,7.05711058 L5.98846077,7.05711058 L5.98846077,11.1872474 C5.98846077,12.4252542 6.60918483,12.8532195 7.59753475,12.8532195 L9,12.8532195 L9,16 L6.34491321,16 Z" id="Fill-1"></path>
        </g>
    </g>
</svg>
